X: 20082
T: Jimmy O' The Bu's
R: barndance
M: 4/4
K: Dmajor
A2 A2 A>F Ad|c2 c2 c>A B>c|d>c d>e f>e d>B|A2 A2 A>F Ad|c2 c2 c>A b>c|d2 f2 d2 B2:|
A2 f2 f>e d>c|B2 g2 g3 f|e2 a2 ^g2 a2|b2 a2 ^g2 a2|A2 f2 f>e d>c|B2 g2 g3 b|a2 f2 g2 e2|d2 f2 d4:|

